X: 4
T:Bank of Ireland, The
M:C|
L:1/8
R:reel
K:DMix
AB|c2 AB cBAG|EGDG EGAB|c2 AB cBAG|Adde fded|!
c2 AB cBAG|EGDG EGAB|c3 d cBAG|Add^c d2:|!
K:D e|f2df e3 c|dfed cA ~A2|f2df gfed|eaag ed d2|!
_fg (3agf ef (3gfe|dfed cA~A2|Addc defg|af (3gfe d3:||



